src/assets/filled/Moneys.svg

<svg width="24" height="24" viewBox="0 0 24 24"  xmlns="http://www.w3.org/2000/svg">
<path d="M19.17 6.64002C18.74 4.47002 17.13 3.52002 14.89 3.52002H6.10996C3.46996 3.52002 1.70996 4.84002 1.70996 7.92002V13.07C1.70996 15.29 2.61996 16.59 4.11996 17.15C4.33996 17.23 4.57996 17.3 4.82996 17.34C5.22996 17.43 5.65996 17.47 6.10996 17.47H14.9C17.54 17.47 19.3 16.15 19.3 13.07V7.92002C19.3 7.45002 19.26 7.03002 19.17 6.64002ZM5.52996 12C5.52996 12.41 5.18996 12.75 4.77996 12.75C4.36996 12.75 4.02996 12.41 4.02996 12V9.00002C4.02996 8.59002 4.36996 8.25002 4.77996 8.25002C5.18996 8.25002 5.52996 8.59002 5.52996 9.00002V12ZM10.5 13.14C9.03996 13.14 7.85996 11.96 7.85996 10.5C7.85996 9.04002 9.03996 7.86002 10.5 7.86002C11.96 7.86002 13.14 9.04002 13.14 10.5C13.14 11.96 11.96 13.14 10.5 13.14ZM16.96 12C16.96 12.41 16.62 12.75 16.21 12.75C15.8 12.75 15.46 12.41 15.46 12V9.00002C15.46 8.59002 15.8 8.25002 16.21 8.25002C16.62 8.25002 16.96 8.59002 16.96 9.00002V12Z" />
<path d="M22.3 10.92V16.07C22.3 19.15 20.54 20.48 17.89 20.48H9.11001C8.36001 20.48 7.69001 20.37 7.11001 20.15C6.64001 19.98 6.23001 19.73 5.90001 19.41C5.72001 19.24 5.86001 18.97 6.11001 18.97H14.89C18.59 18.97 20.79 16.77 20.79 13.08V7.91997C20.79 7.67997 21.06 7.52997 21.23 7.70997C21.91 8.42997 22.3 9.47997 22.3 10.92Z" />
</svg>

<?xml version="1.0" encoding="UTF-8"?>
<svg width="24" height="24" viewBox="0 0 24 24" xmlns="http://www.w3.org/2000/svg">
 <path d="m19.17 6.64c-0.43-2.17-2.04-3.12-4.28-3.12h-8.78c-2.64 0-4.4 1.32-4.4 4.4v5.15c0 2.22 0.91 3.52 2.41 4.08 0.22 0.08 0.46 0.15 0.71 0.19 0.4 0.09 0.83 0.13 1.28 0.13h8.79c2.64 0 4.4-1.32 4.4-4.4v-5.15c0-0.47-0.04-0.89-0.13-1.28zm-13.64 5.36c0 0.41-0.34 0.75-0.75 0.75s-0.75-0.34-0.75-0.75v-3c0-0.41 0.34-0.75 0.75-0.75s0.75 0.34 0.75 0.75v3zm4.97 1.14c-1.46 0-2.64-1.18-2.64-2.64 0-1.46 1.18-2.64 2.64-2.64 1.46 0 2.64 1.18 2.64 2.64 0 1.46-1.18 2.64-2.64 2.64zm6.46-1.14c0 0.41-0.34 0.75-0.75 0.75s-0.75-0.34-0.75-0.75v-3c0-0.41 0.34-0.75 0.75-0.75s0.75 0.34 0.75 0.75v3z"/>
 <path d="m22.3 10.92v5.15c0 3.08-1.76 4.41-4.41 4.41h-8.78c-0.75 0-1.42-0.11-2-0.33-0.47-0.17-0.88-0.42-1.21-0.74-0.18-0.17-0.04-0.44 0.21-0.44h8.78c3.7 0 5.9-2.2 5.9-5.89v-5.16c0-0.24 0.27-0.39 0.44-0.21 0.68 0.72 1.07 1.77 1.07 3.21z"/>
</svg>
